symbols/web/dock/materialsymbolsrounded/dock_wght100_48px.svg

<svg xmlns="http://www.w3.org/2000/svg" height="48" width="48"><path d="M17.85 41.8q-.25 0-.4-.15-.15-.15-.15-.4t.15-.4q.15-.15.4-.15h12.3q.25 0 .4.15.15.15.15.4t-.15.4q-.15.15-.4.15ZM17 37q-1.15 0-1.925-.775-.775-.775-.775-1.925v-26q0-1.15.775-1.925Q15.85 5.6 17 5.6h14q1.15 0 1.925.775.775.775.775 1.925v26q0 1.15-.775 1.925Q32.15 37 31 37Zm-1.6-4.7v2q0 .7.45 1.15.45.45 1.15.45h14q.7 0 1.15-.45.45-.45.45-1.15v-2Zm0 0v3.6V32.3Zm0-1.1h17.2V11.4H15.4Zm0-20.9h17.2v-2q0-.7-.45-1.15Q31.7 6.7 31 6.7H17q-.7 0-1.15.45-.45.45-.45 1.15Zm0 0V6.7 8.3Z"/></svg>

<svg xmlns="http://www.w3.org/2000/svg" height="48" width="48"><path d="M17.85 41.8Q17.6 41.8 17.45 41.65Q17.3 41.5 17.3 41.25Q17.3 41 17.45 40.85Q17.6 40.7 17.85 40.7H30.15Q30.4 40.7 30.55 40.85Q30.7 41 30.7 41.25Q30.7 41.5 30.55 41.65Q30.4 41.8 30.15 41.8ZM17 37Q15.85 37 15.075 36.225Q14.3 35.45 14.3 34.3V8.3Q14.3 7.15 15.075 6.375Q15.85 5.6 17 5.6H31Q32.15 5.6 32.925 6.375Q33.7 7.15 33.7 8.3V34.3Q33.7 35.45 32.925 36.225Q32.15 37 31 37ZM15.4 32.3V34.3Q15.4 35 15.85 35.45Q16.3 35.9 17 35.9H31Q31.7 35.9 32.15 35.45Q32.6 35 32.6 34.3V32.3ZM15.4 32.3V34.3Q15.4 35 15.4 35.45Q15.4 35.9 15.4 35.9Q15.4 35.9 15.4 35.45Q15.4 35 15.4 34.3V32.3ZM15.4 31.2H32.6V11.4H15.4ZM15.4 10.3H32.6V8.3Q32.6 7.6 32.15 7.15Q31.7 6.7 31 6.7H17Q16.3 6.7 15.85 7.15Q15.4 7.6 15.4 8.3ZM15.4 10.3V8.3Q15.4 7.6 15.4 7.15Q15.4 6.7 15.4 6.7Q15.4 6.7 15.4 7.15Q15.4 7.6 15.4 8.3Z"/></svg>
